src/assets/icons/history.svg

<svg viewBox="0 0 20 20" xmlns="http://www.w3.org/2000/svg">
<path d="M9.44006 0C6.87644 0.00731219 4.41355 0.998914 2.56006 2.77V1C2.56006 0.734784 2.4547 0.48043 2.26717 0.292893C2.07963 0.105357 1.82528 0 1.56006 0C1.29484 0 1.04049 0.105357 0.852952 0.292893C0.665415 0.48043 0.560059 0.734784 0.560059 1V5.5C0.560059 5.76522 0.665415 6.01957 0.852952 6.20711C1.04049 6.39464 1.29484 6.5 1.56006 6.5H6.06006C6.32528 6.5 6.57963 6.39464 6.76717 6.20711C6.9547 6.01957 7.06006 5.76522 7.06006 5.5C7.06006 5.23478 6.9547 4.98043 6.76717 4.79289C6.57963 4.60536 6.32528 4.5 6.06006 4.5H3.66006C4.57177 3.53701 5.70856 2.81576 6.96819 2.40114C8.22781 1.98651 9.57075 1.89152 10.8762 2.1247C12.1816 2.35788 13.4086 2.91193 14.4468 3.73699C15.485 4.56205 16.3018 5.63226 16.8238 6.85133C17.3457 8.0704 17.5564 9.4001 17.4369 10.7208C17.3175 12.0415 16.8716 13.3118 16.1393 14.4174C15.4071 15.5231 14.4115 16.4293 13.2421 17.0547C12.0727 17.68 10.7662 18.0049 9.44006 18C9.17484 18 8.92049 18.1054 8.73295 18.2929C8.54542 18.4804 8.44006 18.7348 8.44006 19C8.44006 19.2652 8.54542 19.5196 8.73295 19.7071C8.92049 19.8946 9.17484 20 9.44006 20C12.0922 20 14.6358 18.9464 16.5111 17.0711C18.3865 15.1957 19.4401 12.6522 19.4401 10C19.4401 7.34784 18.3865 4.8043 16.5111 2.92893C14.6358 1.05357 12.0922 0 9.44006 0ZM9.44006 6C9.17484 6 8.92049 6.10536 8.73295 6.29289C8.54542 6.48043 8.44006 6.73478 8.44006 7V10C8.44006 10.2652 8.54542 10.5196 8.73295 10.7071C8.92049 10.8946 9.17484 11 9.44006 11H11.4401C11.7053 11 11.9596 10.8946 12.1472 10.7071C12.3347 10.5196 12.4401 10.2652 12.4401 10C12.4401 9.73478 12.3347 9.48043 12.1472 9.29289C11.9596 9.10536 11.7053 9 11.4401 9H10.4401V7C10.4401 6.73478 10.3347 6.48043 10.1472 6.29289C9.95963 6.10536 9.70527 6 9.44006 6Z"/>
</svg>

<svg viewBox="0 0 20 20" xmlns="http://www.w3.org/2000/svg">
  <path d="M9.44 0a10 10 0 0 0-6.88 2.77V1a1 1 0 0 0-2 0v4.5a1 1 0 0 0 1 1h4.5a1 1 0 0 0 0-2h-2.4A8 8 0 1 1 9.44 18a1 1 0 0 0 0 2 10 10 0 0 0 0-20zm0 6a1 1 0 0 0-1 1v3a1 1 0 0 0 1 1h2a1 1 0 0 0 0-2h-1V7a1 1 0 0 0-1-1z"/>
</svg>
